X:1645
T:Engelska
A:Orust
M:4/4
O:Sweden
R:Engelska
Z:Richard Robinson 
%%TUNEURL: http://www.leeds.ac.uk/music/Info/RRTuneBk/gettune/00000cdf.html
%%ID:00000cdf
K:A
|: Ac |\
e2f2 efed | c2a2 e3d | cedc BdcB |1 Aced cB :|2 A3A- A2 ::
Ac |\
e2e2 e2de | f2ed B3c | d2d2 d2cd | e3d cdB2 |
A2a2 a2 gf | e2f2 e3d | cedc BdcB | A3A- A2 :|
